icons/test-tube-fill.svg

<svg viewBox="0 0 24 24" fill="currentColor" xmlns="http://www.w3.org/2000/svg"><path d="M17 2V4H16V18C16 20.2091 14.2091 22 12 22C9.79086 22 8 20.2091 8 18V4H7V2H17ZM13 15C12.4477 15 12 15.4477 12 16C12 16.5523 12.4477 17 13 17C13.5523 17 14 16.5523 14 16C14 15.4477 13.5523 15 13 15ZM11 12C10.4477 12 10 12.4477 10 13C10 13.5523 10.4477 14 11 14C11.5523 14 12 13.5523 12 13C12 12.4477 11.5523 12 11 12ZM14 4H10V8H14V4Z"/></svg>

<svg xmlns="http://www.w3.org/2000/svg" viewBox="0 0 24 24">
    <g>
        <path fill="none" d="M0 0H24V24H0z"/>
        <path d="M17 2v2h-1v14c0 2.21-1.79 4-4 4s-4-1.79-4-4V4H7V2h10zm-4 13c-.552 0-1 .448-1 1s.448 1 1 1 1-.448 1-1-.448-1-1-1zm-2-3c-.552 0-1 .448-1 1s.448 1 1 1 1-.448 1-1-.448-1-1-1zm3-8h-4v4h4V4z"/>
    </g>
</svg>
